src/assets/images/bravo.svg

<svg enable-background="new 0 0 560 423.2" viewBox="0 0 560 423.2" xmlns="http://www.w3.org/2000/svg"><g fill="#fff"><path d="m469.8 135.4c-17 0-28.5 13.5-28.5 29.2 0 16.8 11.9 29.3 28.6 29.3 15.5 0 28.6-11.8 28.6-29.1 0-18.3-13.3-29.4-28.7-29.4z"/><path d="m0 0v423.2l116.7-110.5h443.3v-312.7zm99.1 212.6c-20.5 0-28.5-13.2-28.5-13.2v10.9h-20.2v-118.4l20.2-18.5v56.6s8.2-13.2 28.5-13.2c25.8 0 45.6 20.2 45.7 48-.1 25.4-17.6 47.8-45.7 47.8zm116.2-73.6s-6.7-3.3-15-3.3c-15.6 0-22 11.2-22 23.8v50.7h-20.2v-91.2h19.9v10.1s6.7-12.4 26.6-12.4c8.7 0 15.1 2.4 15.1 2.4zm99.2 71.3h-20.2v-10.9s-8 13.2-28.5 13.2c-28.1 0-45.7-22.5-45.7-47.9 0-27.8 19.8-48 45.6-48 20.3 0 28.5 13.2 28.5 13.2h.1v-10.9h20.2zm46.2 0-36.7-91.3h21.8l26.9 70.5 26.9-70.5h21.2l-36.5 91.3zm109.2 2.3c-30.3 0-49.1-22.6-49.1-48 0-25.6 18.7-47.9 49.3-47.9 25.7 0 48.8 18.5 48.8 48 0 26.6-19.9 47.9-49 47.9z"/><path d="m96.6 135.5c-16.5 0-27.4 12.7-27.4 29.1 0 18.4 12.6 29.1 27.4 29.1 16.1 0 27.5-11.9 27.5-29.2.1-17.5-11.6-29-27.5-29z"/><path d="m268.2 135.5c-15.9 0-27.5 11.5-27.5 29.1 0 17.3 11.4 29.2 27.5 29.2 14.8 0 27.4-10.7 27.4-29.1 0-16.5-10.9-29.2-27.4-29.2z"/></g></svg>

<?xml version="1.0" encoding="utf-8"?>
<!-- Generator: Adobe Illustrator 24.2.3, SVG Export Plug-In . SVG Version: 6.00 Build 0)  -->
<svg version="1.1" id="Layer_1" xmlns="http://www.w3.org/2000/svg" xmlns:xlink="http://www.w3.org/1999/xlink" x="0px" y="0px"
	 viewBox="0 0 560 423.2" style="enable-background:new 0 0 560 423.2;" xml:space="preserve">
<style type="text/css">
	.st0{fill:#FFFFFF;}
</style>
<g>
	<path class="st0" d="M469.8,135.4c-17,0-28.5,13.5-28.5,29.2c0,16.8,11.9,29.3,28.6,29.3c15.5,0,28.6-11.8,28.6-29.1
		C498.5,146.5,485.2,135.4,469.8,135.4z"/>
	<path class="st0" d="M0,0v423.2l116.7-110.5H560V0H0z M99.1,212.6c-20.5,0-28.5-13.2-28.5-13.2v10.9H50.4V91.9l20.2-18.5v56.6
		c0,0,8.2-13.2,28.5-13.2c25.8,0,45.6,20.2,45.7,48C144.7,190.2,127.2,212.6,99.1,212.6z M215.3,139c0,0-6.7-3.3-15-3.3
		c-15.6,0-22,11.2-22,23.8v50.7h-20.2V119h19.9v10.1c0,0,6.7-12.4,26.6-12.4c8.7,0,15.1,2.4,15.1,2.4L215.3,139z M314.5,210.3h-20.2
		v-10.9c0,0-8,13.2-28.5,13.2c-28.1,0-45.7-22.5-45.7-47.9c0-27.8,19.8-48,45.6-48c20.3,0,28.5,13.2,28.5,13.2h0.1V119h20.2V210.3z
		 M360.7,210.3L324,119h21.8l26.9,70.5l26.9-70.5h21.2l-36.5,91.3H360.7z M469.9,212.6c-30.3,0-49.1-22.6-49.1-48
		c0-25.6,18.7-47.9,49.3-47.9c25.7,0,48.8,18.5,48.8,48C518.9,191.3,499,212.6,469.9,212.6z"/>
	<path class="st0" d="M96.6,135.5c-16.5,0-27.4,12.7-27.4,29.1c0,18.4,12.6,29.1,27.4,29.1c16.1,0,27.5-11.9,27.5-29.2
		C124.2,147,112.5,135.5,96.6,135.5z"/>
	<path class="st0" d="M268.2,135.5c-15.9,0-27.5,11.5-27.5,29.1c0,17.3,11.4,29.2,27.5,29.2c14.8,0,27.4-10.7,27.4-29.1
		C295.6,148.2,284.7,135.5,268.2,135.5z"/>
</g>
</svg>
